!!! OTL: Literature115
!!! Chapter: 5
!!! Section: III
!!! Page: 371
!!! Mode: 
!!! Encoder: DJB
**kern
*staff1
*I"Piano
=1-
*clefC4
*k[f#c#g#d#a#]
*B:
*M4/4
4.f#\
8e\
4f#\
8c#\L
8B\J
=2
*M2/4
4e\
4c#\
=3
*M4/4
4.f#\
8e\
4f#\
8c#\L
8B\J
=4
*M3/4
4e\
4f#\
4c#\
=5
*M4/4
4B\
8c#\L
8B\J
4e\
4c#\
=6
*M5/4
4B\
8c#\L
8B\J
4f#\
4e\
4c#\
=7
*M3/4
8B\L
8c#\J
4d#\
4r
==
*-
